public/images/email.svg

<svg fill="none" height="24" viewBox="0 0 24 24" width="24" xmlns="http://www.w3.org/2000/svg"><path d="m12 0c-6.62744 0-12 5.37256-12 12 0 6.6274 5.37256 12 12 12 6.6274 0 12-5.3726 12-12 0-6.62744-5.3726-12-12-12zm5.4063 6.66667-5.4107 4.27753-5.58682-4.27753zm.5567 10.66663h-12.11111v-8.86008l5.58271 4.23448c.1496.1144.3711.1716.5496.1716.1828 0 .3415-.06.4928-.1795l5.486-4.36402z" fill="#fff"/></svg>

<svg width="24" height="24" viewBox="0 0 24 24" fill="none" xmlns="http://www.w3.org/2000/svg">
<path d="M12 0C5.37256 0 0 5.37256 0 12C0 18.6274 5.37256 24 12 24C18.6274 24 24 18.6274 24 12C24 5.37256 18.6274 0 12 0ZM17.4063 6.66667L11.9956 10.9442L6.40878 6.66667H17.4063ZM17.963 17.3333H5.85189V8.47322L11.4346 12.7077C11.5842 12.8221 11.8057 12.8793 11.9842 12.8793C12.167 12.8793 12.3257 12.8193 12.477 12.6998L17.963 8.33578V17.3333Z" fill="white"/>
</svg>
